X: 1160
T: Bräklåt efter Kus-Erik
T: (Jemtpolska)
S: efter [[Personer/Kus-Erik]] (Erik Ersson)
B: EÖ, nr 456
B: Jämför [[http://www.smus.se/earkiv/fmk/browselarge.php?lang=sw&katalogid=M+6&bildnr=00020|SMUS - katalog M6 bild 20]] nr 97 nedtecknad av [[Personer/Johan Lundin]]
B: Jämför [[http://www.smus.se/earkiv/fmk/browselarge.php?lang=sw&katalogid=Upprop+19&bildnr=00038|SMUS - katalog Upprop19 bild 38]]
R: Polska
O: Färila, Hälsingland
Z: Nils L
M: 3/4
L: 1/8
K: Am
A>(c e>)(f e)>d | d>B ((3cBc) A>c | {cd}(c>B) (B>^G)   E>G      | A2    (A>B) c>d  |
e2   (e>f) e>d  | d>B ((3cBc) A>c | (Pc>B)    (B>^G)   E>G      | A2    A2    z2  !fine! ::
K: C
c>d  e2    c2   | d>e f2      d2  | g2        !turn!g2 !turn!g2 | (f>e) e4 !D.C.!       :|
(:musicend:)
(:music:)
